X:9
T:Prelude by Dean(09). TBe.009
M:4/4
L:1/16
Q:1/4=120
C:Mr. Thomas Dean
S:Thomas Bennet MS,1718, VWML
R:.misc.
O:England
H:1718
Z:vmp.C. Graebe.
K:D minor
“^D solre natural=Dmin.No time sig”\
d4f4a4f4 | b4g4f4d4 | dfaf dfaf ^ceae ^ceae |!
dfbf dfbf DFAF DFAF | agfe defd gfed cdec |!
fedc BcdB edcB ABcA | dcBA GABG cBAG FGAF |!
dfaf ^ceae dfaf ^ceae | d2D2F2A2 d8 |]

